resources/icons/custom/hc_orifice_weir.svg

<?xml version="1.0" encoding="UTF-8" standalone="no"?>
<svg
   width="24"
   height="24"
   viewBox="0 0 24 24"
   fill="none"
   stroke="currentColor"
   stroke-width="1.5"
   stroke-linecap="round"
   stroke-linejoin="round"
   version="1.1"
   id="svg4"
   sodipodi:docname="hc_orifice_weir.svg"
   inkscape:version="1.2.1 (9c6d41e410, 2022-07-14)"
   xml:space="preserve"
   xmlns:inkscape="http://www.inkscape.org/namespaces/inkscape"
   xmlns:sodipodi="http://sodipodi.sourceforge.net/DTD/sodipodi-0.dtd"
   xmlns="http://www.w3.org/2000/svg"
   xmlns:svg="http://www.w3.org/2000/svg"><defs
     id="defs8"><rect
       x="-4.4583682"
       y="-11.721194"
       width="35.559082"
       height="33.617534"
       id="rect13873" /><rect
       x="-4.4583683"
       y="-11.721194"
       width="35.559082"
       height="33.617535"
       id="rect13873-6" /></defs><sodipodi:namedview
     id="namedview6"
     pagecolor="#505050"
     bordercolor="#ffffff"
     borderopacity="1"
     inkscape:showpageshadow="0"
     inkscape:pageopacity="0"
     inkscape:pagecheckerboard="1"
     inkscape:deskcolor="#505050"
     showgrid="false"
     inkscape:zoom="45.254834"
     inkscape:cx="14.120039"
     inkscape:cy="8.3747959"
     inkscape:window-width="2520"
     inkscape:window-height="1574"
     inkscape:window-x="-11"
     inkscape:window-y="-11"
     inkscape:window-maximized="1"
     inkscape:current-layer="svg4"
     showguides="false" /><g
     id="g21384"
     transform="translate(1.7664853,0.95225239)"><rect
       style="fill:#7cb4df;fill-opacity:1;stroke:none;stroke-width:1.5;stroke-linecap:round"
       id="rect11925"
       width="16.836519"
       height="6.5477486"
       x="2.0745239"
       y="11.047748" /></g><path
     id="path2950"
     style="fill:#000000;fill-opacity:1;stroke-width:1;stroke-linecap:round;stroke-dasharray:none"
     d="M 1.75 4.5 L 1.75 19.5 L 22.25 19.5 L 22.25 4.5 L 1.75 4.5 z M 12 5.3769531 A 6.6238923 6.6238923 0 0 1 18.623047 12 A 6.6238923 6.6238923 0 0 1 12 18.623047 A 6.6238923 6.6238923 0 0 1 5.3769531 12 A 6.6238923 6.6238923 0 0 1 12 5.3769531 z " /></svg>

<?xml version="1.0" encoding="UTF-8"?>
<svg width="24" height="24" fill="none" stroke="currentColor" stroke-linecap="round" stroke-linejoin="round" stroke-width="1.5" version="1.1" viewBox="0 0 24 24" xml:space="preserve"
  xmlns="http://www.w3.org/2000/svg">
  <g transform="translate(1.7665 .95225)">
    <rect x="2.0745" y="11.048" width="16.837" height="6.5477" fill="#7cb4df" stroke="none"/>
  </g>
  <path d="m1.75 4.5v15h20.5v-15h-20.5zm10.25 0.87695a6.6239 6.6239 0 0 1 6.623 6.623 6.6239 6.6239 0 0 1-6.623 6.623 6.6239 6.6239 0 0 1-6.623-6.623 6.6239 6.6239 0 0 1 6.623-6.623z" fill="#000" stroke-linecap="round" stroke-width="1"/>
</svg>
